svgs/bgram.svg

<svg width="192" height="192" viewBox="0 0 192 192" fill="none" xmlns="http://www.w3.org/2000/svg">
<g clip-path="url(#clip0_29_84)">
<path d="M66.8796 125.728L48.4816 107.33C54.782 101.029 68.634 93.89 78.6397 90.6047C82.7209 89.2647 86.2284 87.3339 87.6707 83.2877C90.3341 75.8157 83.5376 68.8381 75.6404 69.5861C58.3258 71.2261 33.6786 72.6174 13.9856 70.8626C39.9398 51.9171 95.7906 17.9686 111.56 33.7382C119.445 41.6231 118.131 48.1937 116.817 57.3927C125.604 52.8484 146.385 47.5367 153.613 54.7644C143.099 60.021 137.843 65.2775 135.215 75.7906C144.414 74.4765 150.984 73.1623 158.869 81.0471C174.639 96.8168 140.69 152.668 121.745 178.622C119.99 158.929 121.381 134.282 123.021 116.967C123.769 109.07 116.792 102.273 109.32 104.937C105.273 106.379 103.343 109.886 102.003 113.968C98.7173 123.973 91.5779 137.825 85.2775 144.126L66.8796 125.728Z" stroke="black" stroke-width="12" stroke-linecap="round" stroke-linejoin="round"/>
</g>
<defs>
<clipPath id="clip0_29_84">
<rect width="192" height="192" fill="white"/>
</clipPath>
</defs>
</svg>

<svg width="192" height="192" fill="none" xmlns="http://www.w3.org/2000/svg"><g clip-path="url(#a)"><path d="M66.88 125.728 48.482 107.33c6.3-6.301 20.152-13.44 30.158-16.725 4.08-1.34 7.588-3.271 9.03-7.317 2.664-7.472-4.132-14.45-12.03-13.702-17.314 1.64-41.961 3.031-61.654 1.277C39.94 51.917 95.79 17.969 111.56 33.738c7.885 7.885 6.571 14.456 5.257 23.655 8.787-4.545 29.568-9.856 36.796-2.629-10.514 5.257-15.77 10.514-18.398 21.027 9.199-1.314 15.769-2.629 23.654 5.256 15.77 15.77-18.179 71.621-37.124 97.575-1.755-19.693-.364-44.34 1.276-61.655.748-7.897-6.229-14.694-13.701-12.03-4.047 1.442-5.977 4.949-7.317 9.031-3.286 10.005-10.425 23.857-16.725 30.158L66.88 125.728z" stroke="#000" stroke-width="12" stroke-linecap="round" stroke-linejoin="round"/></g><defs><clipPath id="a"><path fill="#fff" d="M0 0h192v192H0z"/></clipPath></defs></svg>
